X: 1
T: Down And Out In Santiago De Compestella
M: 3/4
L: 1/8
R: mazurka
K: Dmaj
|: fg | af f/f/f df | df fd ef | ge e/e/e ce | ce eA AF | 
GA BG GB | AB cA AA |[1 cd eA fa | e4 :|[2 ca ge cd | ed dd ||
|: ag | fd d/d/d df | df f/f/f gf | ec c/c/c ce | ce e/f/e AB |
[1 dB B/B/B Bd | Bd d/d/d dB | AB cd ef | g4 :|
[2 GA BG GB | AB cA A/A/A | cage cd ed | d4 ||
|: A2 | d2 fd ec | d4 A2 | d2 ed cB | A4 AB | 
GA BG GB | AB cA A/A/A |1 cd eA fa | e4 :|2 ca ge ed | d4 ||
